X: 6941
T: Cheshire Round
R: three-two
M: 3/2
K: Dmajor
|:f2 ef gf ed fg a2|b2e4 d2 c2 A2|f2 ef gf ed fg a2|A2 d4 A2 F2 D2:|
|:B2 AB =cB AG F2 D2|E2 e4 d2c2A2|B2 AB =cB AG F2 E2|D2d4 A2 F2 D2:|
|:D4 C4 D2 F2|G4 ^G4 A4|D4 ^C4 B,4|A,2 B,2 =C2 ^C2 D4:|
|:G4 F4 D4|C4 B,4 A,4|G4 E4 A,4|D4 C4 D4:|

